X:647
T:Brudmarsch # 647
S:efter Anders Gustaf Andersson
B:Sörmlands musikarkiv - Anders Gustaf Andersson, Nora (pdf), nr 647
O:Mörkö, Södermanland
R:Brudmarsch
M:4/4
L:1/8
K:D
Q:160
DEFG |: A4 A3 B | A4 B2c2 |d4 e3 f | g4 f2gf | e2f2g2b2 | (ga)gf e2d2|
c2 A2B2c2 | e2 dd d2d2 | d2 (FE) (DEFG) | A4 A3 B | A4 B2c2 |d4 e3 f | g4 f2gf | e2f2g2b2 |
gagf e2d2| c2 A2B2c2 | e2 dd d2d2 | d4 :| f2d2 | B4B2d2| c4e2c2| A2 dd d2 e2 | (f2gf) e2d2|
c4e2d2 | B4d2B2 | A2 aa a2 aa| f2d2d2f2 | abag aba2 | f2d2d2 (3efg| a2f2e2d2 | A2F2D2F2|
A4 A3B| A4B3c| d4e2f2| g4f2gf| e2f2g2b2| (ga)gf e2d2| c2A2B2c2| e2ddd2d2| d4|
[K:G] b6fg| a2g2f2e2| d6AB| c2d2e2B2| [c6E] (3BcB| A2e2d2c2| B6GB | d2d2e2f2g2a2 |
b6fg| a2g2f2e2| d2g2B2d2| c2B2A2F2| G2ggg2g2| g4 :|

